X:4092
T:Mazurka de Castenau
O:england
M:3/4
L:1/8
K:G
Bc|d2 de dc|d4 Bc|d2 de dB|c4 AB|\
cB cd cB|c4 de|fe dc BA|1 B2G2:|2 G4||
K:C
|:ef|e2 dc de|d2 cB cd|cB AG AB|A2G2 ef|\
e2 dc de|d2 cB cd|cB AG AB|c4:|


